brand-assets/vite/vite-icon-mono-light.svg

<svg width="77" height="47" viewBox="0 0 77 47" fill="none" xmlns="http://www.w3.org/2000/svg">
<path d="M40.1512 45.7093C39.4877 46.5537 38.1306 46.0841 38.1306 45.0113V34.7079C38.1306 33.4585 37.1181 32.4461 35.8687 32.4461H24.4925C23.5727 32.4461 23.0363 31.4056 23.5727 30.6581L31.052 20.1867C32.1226 18.6895 31.052 16.6086 29.2102 16.6086H15.4429C14.523 16.6086 13.9867 15.5682 14.523 14.8207L24.2189 1.2451C24.4322 0.947821 24.7747 0.771179 25.1388 0.771179H54.0326C54.9525 0.771179 55.4888 1.81164 54.9525 2.55914L47.4732 13.0305C46.4026 14.5277 47.4732 16.6086 49.315 16.6086H60.6912C61.6347 16.6086 62.1646 17.6965 61.5808 18.4397L40.1533 45.7114L40.1512 45.7093Z" fill="white"/>
<mask id="mask0_2002_17309" style="mask-type:alpha" maskUnits="userSpaceOnUse" x="14" y="0" width="48" height="47">
<path d="M40.0472 45.7091C39.3837 46.5535 38.0266 46.0839 38.0266 45.0111V34.7077C38.0266 33.4583 37.0141 32.4459 35.7647 32.4459H24.3885C23.4687 32.4459 22.9323 31.4054 23.4687 30.6579L30.948 20.1865C32.0186 18.6894 30.948 16.6084 29.1062 16.6084H15.3389C14.419 16.6084 13.8826 15.568 14.419 14.8205L24.1149 1.24491C24.3282 0.947638 24.6707 0.770996 25.0348 0.770996H53.9286C54.8485 0.770996 55.3848 1.81146 54.8485 2.55895L47.3692 13.0304C46.2986 14.5275 47.3692 16.6084 49.211 16.6084H60.5872C61.5307 16.6084 62.0606 17.6963 61.4768 18.4395L40.0493 45.7112L40.0472 45.7091Z" fill="black"/>
</mask>
<g mask="url(#mask0_2002_17309)">
<g filter="url(#filter0_f_2002_17309)">
<ellipse cx="5.50802" cy="14.7043" rx="5.50802" ry="14.7043" transform="matrix(0.00324134 0.999995 0.999995 -0.00324134 9.73633 32.2867)" fill="white"/>
</g>
<g filter="url(#filter1_f_2002_17309)">
<ellipse cx="10.3995" cy="29.8514" rx="10.3995" ry="29.8514" transform="matrix(0.00324134 0.999995 0.999995 -0.00324134 -25.1226 8.65372)" fill="white"/>
</g>
<g filter="url(#filter2_f_2002_17309)">
<ellipse cx="5.50802" cy="30.4868" rx="5.50802" ry="30.4868" transform="matrix(0.00324134 0.999995 0.999995 -0.00324134 -26.2617 12.0921)" fill="white"/>
</g>
<g filter="url(#filter3_f_2002_17309)">
<ellipse cx="5.50802" cy="30.5986" rx="5.50802" ry="30.5986" transform="matrix(0.00324134 0.999995 0.999995 -0.00324134 -21.6665 30.0914)" fill="white"/>
</g>
<g filter="url(#filter4_f_2002_17309)">
<ellipse cx="5.50802" cy="30.5986" rx="5.50802" ry="30.5986" transform="matrix(0.00324134 0.999995 0.999995 -0.00324134 -20.1343 31.2403)" fill="white"/>
</g>
<g filter="url(#filter5_f_2002_17309)">
<ellipse cx="14.0715" cy="22.0783" rx="14.0715" ry="22.0783" transform="matrix(0.0584509 -0.99829 -0.99829 -0.0584509 88.5542 27.6343)" fill="white"/>
</g>
<g filter="url(#filter6_f_2002_17309)">
<ellipse cx="3.47034" cy="21.5008" rx="3.47034" ry="21.5008" transform="matrix(-0.0172986 -0.99985 -0.99985 0.0172986 90 18.8336)" fill="white"/>
</g>
<g filter="url(#filter7_f_2002_17309)">
<ellipse cx="3.47034" cy="21.5008" rx="3.47034" ry="21.5008" transform="matrix(-0.0172986 -0.99985 -0.99985 0.0172986 90 18.8336)" fill="white"/>
</g>
<g filter="url(#filter8_f_2002_17309)">
<ellipse cx="14.5924" cy="9.74256" rx="4.40666" ry="29.1076" transform="rotate(39.5103 14.5924 9.74256)" fill="white"/>
</g>
<g filter="url(#filter9_f_2002_17309)">
<ellipse cx="61.7282" cy="-5.32068" rx="4.40666" ry="29.1076" transform="rotate(37.8923 61.7282 -5.32068)" fill="white"/>
</g>
<g filter="url(#filter10_f_2002_17309)">
<ellipse cx="55.6177" cy="7.10447" rx="5.9715" ry="9.66515" transform="rotate(37.8923 55.6177 7.10447)" fill="white"/>
</g>
<g filter="url(#filter11_f_2002_17309)">
<ellipse cx="12.3264" cy="39.103" rx="4.40666" ry="29.1076" transform="rotate(37.8923 12.3264 39.103)" fill="white"/>
</g>
<g filter="url(#filter12_f_2002_17309)">
<ellipse cx="12.3264" cy="39.103" rx="4.40666" ry="29.1076" transform="rotate(37.8923 12.3264 39.103)" fill="white"/>
</g>
<g filter="url(#filter13_f_2002_17309)">
<ellipse cx="49.8566" cy="30.6778" rx="4.40666" ry="29.1076" transform="rotate(37.8923 49.8566 30.6778)" fill="white"/>
</g>
<g filter="url(#filter14_f_2002_17309)">
<ellipse cx="52.6233" cy="33.1709" rx="5.9715" ry="15.2974" transform="rotate(37.8923 52.6233 33.1709)" fill="white"/>
</g>
</g>
<path d="M6.91893 0C-2.27936 13.1663 -2.33322 33.5749 6.91893 46.7885H13.1337C3.88372 33.5749 3.93757 13.1663 13.1337 0H6.91893Z" fill="white"/>
<path d="M69.3427 6.10352e-05H63.1279C72.3262 13.1663 72.3801 33.5749 63.1279 46.7886H69.3427C78.5927 33.5749 78.5388 13.1663 69.3427 6.10352e-05Z" fill="white"/>
<defs>
<filter id="filter0_f_2002_17309" x="-5.56413" y="16.9203" width="60.0452" height="41.6535" filterUnits="userSpaceOnUse" color-interpolation-filters="sRGB">
<feFlood flood-opacity="0" result="BackgroundImageFix"/>
<feBlend mode="normal" in="SourceGraphic" in2="BackgroundImageFix" result="shape"/>
<feGaussianBlur stdDeviation="7.65926" result="effect1_foregroundBlur_2002_17309"/>
</filter>
<filter id="filter1_f_2002_17309" x="-40.4074" y="-6.76203" width="90.3397" height="51.4368" filterUnits="userSpaceOnUse" color-interpolation-filters="sRGB">
<feFlood flood-opacity="0" result="BackgroundImageFix"/>
<feBlend mode="normal" in="SourceGraphic" in2="BackgroundImageFix" result="shape"/>
<feGaussianBlur stdDeviation="7.65926" result="effect1_foregroundBlur_2002_17309"/>
</filter>
<filter id="filter2_f_2002_17309" x="-35.4348" y="2.80129" width="79.3554" height="29.4" filterUnits="userSpaceOnUse" color-interpolation-filters="sRGB">
<feFlood flood-opacity="0" result="BackgroundImageFix"/>
<feBlend mode="normal" in="SourceGraphic" in2="BackgroundImageFix" result="shape"/>
<feGaussianBlur stdDeviation="4.59556" result="effect1_foregroundBlur_2002_17309"/>
</filter>
<filter id="filter3_f_2002_17309" x="-30.8396" y="20.8002" width="79.579" height="29.4" filterUnits="userSpaceOnUse" color-interpolation-filters="sRGB">
<feFlood flood-opacity="0" result="BackgroundImageFix"/>
<feBlend mode="normal" in="SourceGraphic" in2="BackgroundImageFix" result="shape"/>
<feGaussianBlur stdDeviation="4.59556" result="effect1_foregroundBlur_2002_17309"/>
</filter>
<filter id="filter4_f_2002_17309" x="-29.3073" y="21.9491" width="79.579" height="29.4" filterUnits="userSpaceOnUse" color-interpolation-filters="sRGB">
<feFlood flood-opacity="0" result="BackgroundImageFix"/>
<feBlend mode="normal" in="SourceGraphic" in2="BackgroundImageFix" result="shape"/>
<feGaussianBlur stdDeviation="4.59556" result="effect1_foregroundBlur_2002_17309"/>
</filter>
<filter id="filter5_f_2002_17309" x="29.9613" y="-17.1296" width="74.7493" height="58.852" filterUnits="userSpaceOnUse" color-interpolation-filters="sRGB">
<feFlood flood-opacity="0" result="BackgroundImageFix"/>
<feBlend mode="normal" in="SourceGraphic" in2="BackgroundImageFix" result="shape"/>
<feGaussianBlur stdDeviation="7.65926" result="effect1_foregroundBlur_2002_17309"/>
</filter>
<filter id="filter6_f_2002_17309" x="37.7537" y="3.05464" width="61.3773" height="25.3622" filterUnits="userSpaceOnUse" color-interpolation-filters="sRGB">
<feFlood flood-opacity="0" result="BackgroundImageFix"/>
<feBlend mode="normal" in="SourceGraphic" in2="BackgroundImageFix" result="shape"/>
<feGaussianBlur stdDeviation="4.59556" result="effect1_foregroundBlur_2002_17309"/>
</filter>
<filter id="filter7_f_2002_17309" x="37.7537" y="3.05464" width="61.3773" height="25.3622" filterUnits="userSpaceOnUse" color-interpolation-filters="sRGB">
<feFlood flood-opacity="0" result="BackgroundImageFix"/>
<feBlend mode="normal" in="SourceGraphic" in2="BackgroundImageFix" result="shape"/>
<feGaussianBlur stdDeviation="4.59556" result="effect1_foregroundBlur_2002_17309"/>
</filter>
<filter id="filter8_f_2002_17309" x="-13.4304" y="-22.0821" width="56.0453" height="63.6493" filterUnits="userSpaceOnUse" color-interpolation-filters="sRGB">
<feFlood flood-opacity="0" result="BackgroundImageFix"/>
<feBlend mode="normal" in="SourceGraphic" in2="BackgroundImageFix" result="shape"/>
<feGaussianBlur stdDeviation="4.59556" result="effect1_foregroundBlur_2002_17309"/>
</filter>
<filter id="filter9_f_2002_17309" x="34.3211" y="-37.6437" width="54.8139" height="64.646" filterUnits="userSpaceOnUse" color-interpolation-filters="sRGB">
<feFlood flood-opacity="0" result="BackgroundImageFix"/>
<feBlend mode="normal" in="SourceGraphic" in2="BackgroundImageFix" result="shape"/>
<feGaussianBlur stdDeviation="4.59556" result="effect1_foregroundBlur_2002_17309"/>
</filter>
<filter id="filter10_f_2002_17309" x="38.847" y="-10.552" width="33.5414" height="35.3129" filterUnits="userSpaceOnUse" color-interpolation-filters="sRGB">
<feFlood flood-opacity="0" result="BackgroundImageFix"/>
<feBlend mode="normal" in="SourceGraphic" in2="BackgroundImageFix" result="shape"/>
<feGaussianBlur stdDeviation="4.59556" result="effect1_foregroundBlur_2002_17309"/>
</filter>
<filter id="filter11_f_2002_17309" x="-15.0808" y="6.78002" width="54.8139" height="64.646" filterUnits="userSpaceOnUse" color-interpolation-filters="sRGB">
<feFlood flood-opacity="0" result="BackgroundImageFix"/>
<feBlend mode="normal" in="SourceGraphic" in2="BackgroundImageFix" result="shape"/>
<feGaussianBlur stdDeviation="4.59556" result="effect1_foregroundBlur_2002_17309"/>
</filter>
<filter id="filter12_f_2002_17309" x="-15.0808" y="6.78002" width="54.8139" height="64.646" filterUnits="userSpaceOnUse" color-interpolation-filters="sRGB">
<feFlood flood-opacity="0" result="BackgroundImageFix"/>
<feBlend mode="normal" in="SourceGraphic" in2="BackgroundImageFix" result="shape"/>
<feGaussianBlur stdDeviation="4.59556" result="effect1_foregroundBlur_2002_17309"/>
</filter>
<filter id="filter13_f_2002_17309" x="22.4495" y="-1.64518" width="54.8139" height="64.646" filterUnits="userSpaceOnUse" color-interpolation-filters="sRGB">
<feFlood flood-opacity="0" result="BackgroundImageFix"/>
<feBlend mode="normal" in="SourceGraphic" in2="BackgroundImageFix" result="shape"/>
<feGaussianBlur stdDeviation="4.59556" result="effect1_foregroundBlur_2002_17309"/>
</filter>
<filter id="filter14_f_2002_17309" x="32.9187" y="11.3595" width="39.4091" height="43.6229" filterUnits="userSpaceOnUse" color-interpolation-filters="sRGB">
<feFlood flood-opacity="0" result="BackgroundImageFix"/>
<feBlend mode="normal" in="SourceGraphic" in2="BackgroundImageFix" result="shape"/>
<feGaussianBlur stdDeviation="4.59556" result="effect1_foregroundBlur_2002_17309"/>
</filter>
</defs>
</svg>

<svg xmlns="http://www.w3.org/2000/svg" width="77" height="47" fill="none" viewBox="0 0 77 47"><path fill="#fff" d="M40.151 45.71c-.663.844-2.02.374-2.02-.699V34.708a2.26 2.26 0 0 0-2.262-2.262H24.493c-.92 0-1.457-1.04-.92-1.788l7.479-10.471c1.07-1.498 0-3.578-1.842-3.578H15.443c-.92 0-1.456-1.04-.92-1.788l9.696-13.576c.213-.297.556-.474.92-.474h28.894c.92 0 1.456 1.04.92 1.788l-7.48 10.472c-1.07 1.497 0 3.578 1.842 3.578h11.376c.944 0 1.474 1.087.89 1.83L40.153 45.712z"/><mask id="a" width="48" height="47" x="14" y="0" maskUnits="userSpaceOnUse" style="mask-type:alpha"><path fill="#000" d="M40.047 45.71c-.663.843-2.02.374-2.02-.699V34.708a2.26 2.26 0 0 0-2.262-2.262H24.389c-.92 0-1.457-1.04-.92-1.788l7.479-10.472c1.07-1.497 0-3.578-1.842-3.578H15.34c-.92 0-1.456-1.04-.92-1.788l9.696-13.575c.213-.297.556-.474.92-.474H53.93c.92 0 1.456 1.04.92 1.788L47.37 13.03c-1.07 1.498 0 3.578 1.842 3.578h11.376c.944 0 1.474 1.088.89 1.831L40.049 45.712z"/></mask><g mask="url(#a)"><g filter="url(#b)"><ellipse cx="5.508" cy="14.704" fill="#fff" rx="5.508" ry="14.704" transform="rotate(269.814 20.96 11.29)scale(-1 1)"/></g><g filter="url(#c)"><ellipse cx="10.399" cy="29.851" fill="#fff" rx="10.399" ry="29.851" transform="rotate(89.814 -16.902 -8.275)scale(1 -1)"/></g><g filter="url(#d)"><ellipse cx="5.508" cy="30.487" fill="#fff" rx="5.508" ry="30.487" transform="rotate(89.814 -19.197 -7.127)scale(1 -1)"/></g><g filter="url(#e)"><ellipse cx="5.508" cy="30.599" fill="#fff" rx="5.508" ry="30.599" transform="rotate(89.814 -25.928 4.177)scale(1 -1)"/></g><g filter="url(#f)"><ellipse cx="5.508" cy="30.599" fill="#fff" rx="5.508" ry="30.599" transform="rotate(89.814 -25.738 5.52)scale(1 -1)"/></g><g filter="url(#g)"><ellipse cx="14.072" cy="22.078" fill="#fff" rx="14.072" ry="22.078" transform="rotate(93.35 31.245 55.578)scale(-1 1)"/></g><g filter="url(#h)"><ellipse cx="3.47" cy="21.501" fill="#fff" rx="3.47" ry="21.501" transform="rotate(89.009 35.419 55.202)scale(-1 1)"/></g><g filter="url(#i)"><ellipse cx="3.47" cy="21.501" fill="#fff" rx="3.47" ry="21.501" transform="rotate(89.009 35.419 55.202)scale(-1 1)"/></g><g filter="url(#j)"><ellipse cx="14.592" cy="9.743" fill="#fff" rx="4.407" ry="29.108" transform="rotate(39.51 14.592 9.743)"/></g><g filter="url(#k)"><ellipse cx="61.728" cy="-5.321" fill="#fff" rx="4.407" ry="29.108" transform="rotate(37.892 61.728 -5.32)"/></g><g filter="url(#l)"><ellipse cx="55.618" cy="7.104" fill="#fff" rx="5.971" ry="9.665" transform="rotate(37.892 55.618 7.104)"/></g><g filter="url(#m)"><ellipse cx="12.326" cy="39.103" fill="#fff" rx="4.407" ry="29.108" transform="rotate(37.892 12.326 39.103)"/></g><g filter="url(#n)"><ellipse cx="12.326" cy="39.103" fill="#fff" rx="4.407" ry="29.108" transform="rotate(37.892 12.326 39.103)"/></g><g filter="url(#o)"><ellipse cx="49.857" cy="30.678" fill="#fff" rx="4.407" ry="29.108" transform="rotate(37.892 49.857 30.678)"/></g><g filter="url(#p)"><ellipse cx="52.623" cy="33.171" fill="#fff" rx="5.971" ry="15.297" transform="rotate(37.892 52.623 33.17)"/></g></g><path fill="#fff" d="M6.919 0c-9.198 13.166-9.252 33.575 0 46.789h6.215c-9.25-13.214-9.196-33.623 0-46.789zm62.424 0h-6.215c9.198 13.166 9.252 33.575 0 46.789h6.215c9.25-13.214 9.196-33.623 0-46.789"/><defs><filter id="b" width="60.045" height="41.654" x="-5.564" y="16.92" color-interpolation-filters="sRGB" filterUnits="userSpaceOnUse"><feFlood flood-opacity="0" result="BackgroundImageFix"/><feBlend in="SourceGraphic" in2="BackgroundImageFix" result="shape"/><feGaussianBlur result="effect1_foregroundBlur_2002_17309" stdDeviation="7.659"/></filter><filter id="c" width="90.34" height="51.437" x="-40.407" y="-6.762" color-interpolation-filters="sRGB" filterUnits="userSpaceOnUse"><feFlood flood-opacity="0" result="BackgroundImageFix"/><feBlend in="SourceGraphic" in2="BackgroundImageFix" result="shape"/><feGaussianBlur result="effect1_foregroundBlur_2002_17309" stdDeviation="7.659"/></filter><filter id="d" width="79.355" height="29.4" x="-35.435" y="2.801" color-interpolation-filters="sRGB" filterUnits="userSpaceOnUse"><feFlood flood-opacity="0" result="BackgroundImageFix"/><feBlend in="SourceGraphic" in2="BackgroundImageFix" result="shape"/><feGaussianBlur result="effect1_foregroundBlur_2002_17309" stdDeviation="4.596"/></filter><filter id="e" width="79.579" height="29.4" x="-30.84" y="20.8" color-interpolation-filters="sRGB" filterUnits="userSpaceOnUse"><feFlood flood-opacity="0" result="BackgroundImageFix"/><feBlend in="SourceGraphic" in2="BackgroundImageFix" result="shape"/><feGaussianBlur result="effect1_foregroundBlur_2002_17309" stdDeviation="4.596"/></filter><filter id="f" width="79.579" height="29.4" x="-29.307" y="21.949" color-interpolation-filters="sRGB" filterUnits="userSpaceOnUse"><feFlood flood-opacity="0" result="BackgroundImageFix"/><feBlend in="SourceGraphic" in2="BackgroundImageFix" result="shape"/><feGaussianBlur result="effect1_foregroundBlur_2002_17309" stdDeviation="4.596"/></filter><filter id="g" width="74.749" height="58.852" x="29.961" y="-17.13" color-interpolation-filters="sRGB" filterUnits="userSpaceOnUse"><feFlood flood-opacity="0" result="BackgroundImageFix"/><feBlend in="SourceGraphic" in2="BackgroundImageFix" result="shape"/><feGaussianBlur result="effect1_foregroundBlur_2002_17309" stdDeviation="7.659"/></filter><filter id="h" width="61.377" height="25.362" x="37.754" y="3.055" color-interpolation-filters="sRGB" filterUnits="userSpaceOnUse"><feFlood flood-opacity="0" result="BackgroundImageFix"/><feBlend in="SourceGraphic" in2="BackgroundImageFix" result="shape"/><feGaussianBlur result="effect1_foregroundBlur_2002_17309" stdDeviation="4.596"/></filter><filter id="i" width="61.377" height="25.362" x="37.754" y="3.055" color-interpolation-filters="sRGB" filterUnits="userSpaceOnUse"><feFlood flood-opacity="0" result="BackgroundImageFix"/><feBlend in="SourceGraphic" in2="BackgroundImageFix" result="shape"/><feGaussianBlur result="effect1_foregroundBlur_2002_17309" stdDeviation="4.596"/></filter><filter id="j" width="56.045" height="63.649" x="-13.43" y="-22.082" color-interpolation-filters="sRGB" filterUnits="userSpaceOnUse"><feFlood flood-opacity="0" result="BackgroundImageFix"/><feBlend in="SourceGraphic" in2="BackgroundImageFix" result="shape"/><feGaussianBlur result="effect1_foregroundBlur_2002_17309" stdDeviation="4.596"/></filter><filter id="k" width="54.814" height="64.646" x="34.321" y="-37.644" color-interpolation-filters="sRGB" filterUnits="userSpaceOnUse"><feFlood flood-opacity="0" result="BackgroundImageFix"/><feBlend in="SourceGraphic" in2="BackgroundImageFix" result="shape"/><feGaussianBlur result="effect1_foregroundBlur_2002_17309" stdDeviation="4.596"/></filter><filter id="l" width="33.541" height="35.313" x="38.847" y="-10.552" color-interpolation-filters="sRGB" filterUnits="userSpaceOnUse"><feFlood flood-opacity="0" result="BackgroundImageFix"/><feBlend in="SourceGraphic" in2="BackgroundImageFix" result="shape"/><feGaussianBlur result="effect1_foregroundBlur_2002_17309" stdDeviation="4.596"/></filter><filter id="m" width="54.814" height="64.646" x="-15.081" y="6.78" color-interpolation-filters="sRGB" filterUnits="userSpaceOnUse"><feFlood flood-opacity="0" result="BackgroundImageFix"/><feBlend in="SourceGraphic" in2="BackgroundImageFix" result="shape"/><feGaussianBlur result="effect1_foregroundBlur_2002_17309" stdDeviation="4.596"/></filter><filter id="n" width="54.814" height="64.646" x="-15.081" y="6.78" color-interpolation-filters="sRGB" filterUnits="userSpaceOnUse"><feFlood flood-opacity="0" result="BackgroundImageFix"/><feBlend in="SourceGraphic" in2="BackgroundImageFix" result="shape"/><feGaussianBlur result="effect1_foregroundBlur_2002_17309" stdDeviation="4.596"/></filter><filter id="o" width="54.814" height="64.646" x="22.45" y="-1.645" color-interpolation-filters="sRGB" filterUnits="userSpaceOnUse"><feFlood flood-opacity="0" result="BackgroundImageFix"/><feBlend in="SourceGraphic" in2="BackgroundImageFix" result="shape"/><feGaussianBlur result="effect1_foregroundBlur_2002_17309" stdDeviation="4.596"/></filter><filter id="p" width="39.409" height="43.623" x="32.919" y="11.36" color-interpolation-filters="sRGB" filterUnits="userSpaceOnUse"><feFlood flood-opacity="0" result="BackgroundImageFix"/><feBlend in="SourceGraphic" in2="BackgroundImageFix" result="shape"/><feGaussianBlur result="effect1_foregroundBlur_2002_17309" stdDeviation="4.596"/></filter></defs></svg>
